X:1
T:Title
%%score { ( 1 3 ) | ( 2 4 ) }
L:1/8
M:4/4
K:Eb
V:1 treble nm="Grand Piano"
V:3 treble 
V:2 bass 
V:4 bass 
V:1
 z4 z2[Q:1/4=112] B,2 | E2 E2 [DF]2 [DF]2 | [EG]2 [GB]2 G2 A>G | F6 z2 |[M:3/4] E6[K:bass] | %5
[M:1/4] [A,B,]2 |[M:4/4] [G,B,E]2[K:treble] [B,E]2 [CEF]2 [B,DF]2 | %7
 [B,EG]2 [B,GB]2 [B,EG]2 [=Ec]>[GB] | A2 GF B2 D2 |[M:7/8] F- F3 E3 |[M:1/4] Be | %11
[M:4/4] d3 c B2 FA | G3 F E2 FE | D2 [Dc]2 [EB]2 [DA]2 | [EG][FA] [GB]2 z2 Be | d3 c B2 FA | %16
 G3 F E2 FE | D2 [Dc]2 [DB]2 [B,D]2 |[M:7/8] [DF]- [DF]3 [B,E]3 |] %19
V:2
 z4 z2 [E,G,]2 | [E,G,B,]2 [E,G,C]2 [B,,B,]2 [B,,B,]2 | [E,B,]2 [E,B,]2 [E,B,E]2[K:treble] F>E | %3
 D6[K:bass] z2 |[M:3/4] G,2 E,>E, E,2 |[M:1/4] D,2 |[M:4/4] E,2 G,,2 A,,2 B,,2 | %7
 E,2 E,2 E,2 [C,B,]>[=E,C] | [F,CF]2 [G,CE][A,CE] [B,D]2 [B,,F,B,]2 | %9
[M:7/8] [E,A,B,]- [E,A,B,]3 [E,G,B,]3 |[M:1/4] z2 |[M:4/4] F,B,A,B, F,B,A,B, | E,B,G,B, E,B,G,B, | %13
 F,B,A,B, G,B,F,B, | E,A,E,B, E,B,A,B, | F,B,A,B, D,B,A,B, | E,B,G,B, E,B,G,B, | %17
 [F,A,]2 [B,,A,]2 [B,,F,]2 [B,,G,]2 |[M:7/8] [B,,A,B,]- [B,,A,B,]3 [E,G,]3 |] %19
V:3
 x8 | x8 | x8 | z2 B,>B, B,2 G>F |[M:3/4] z2[K:bass] G,>G, G,2 |[M:1/4] x2 | %6
[M:4/4] x2[K:treble] x6 | x8 | x8 |[M:7/8] x7 |[M:1/4] x2 |[M:4/4] x8 | x8 | x8 | x8 | x8 | x8 | %17
 x8 |[M:7/8] x7 |] %19
V:4
 x8 | x8 | x6[K:treble] x2 | z2[K:bass] B,,>B,, B,,2 B,>A, |[M:3/4] x6 |[M:1/4] x2 |[M:4/4] x8 | %7
 x8 | x8 |[M:7/8] x7 |[M:1/4] x2 |[M:4/4] x8 | x8 | x8 | x8 | x8 | x8 | x8 |[M:7/8] x7 |] %19

